!! 00000] TT[00
!! NN
!!!OTL: Danchui da gu sheng bu xiang
!!!ARE: Asia, China,Heinan, Danxian
!! Ethnic Group: Han
!! II, 398 (1)
!!!SCT: C0246
!!!YEM: Copyright 1995, estate of Helmut Schaffrath.
**kern
*ICvox
*Ivox
!! Mixed meters:  2/4; 3/4
*M3/4
*k[b-e-a-d-]
*A-:
{8cc
16cc
16b-
8a-
16f
16a-
=1
16b-
16cc
8a-
2b-}
=2
*M2/4
{8cc
16cc
16b-
8a-
16f
16a-
=3
16b-
16cc
8a-
8b-
16b-
16cc}
=4
{8e-
16e-
16e-
8e-
8e-
=5
*M3/4
16a-
16b-
16cc
16ee-
8b-
16cc
16ee-
8b-
8r}
=6
*M2/4
{8e-
8f
16f
16e-
8c
=7
8.B-
16c
16e-
16f
8a-}
=8
{8e-
8f
16f
16e-
8c
=9
2B-}
==
!!!AGN: Diao sheng, Qingge
!! Aehnliche Sitten wie bei nationalen Minderheiten. Die Massen singen
!!    und klauen alles - auch Kunstlieder aus dem Rundfunk. Es gibt sehr
!!    viele Frage-Antwort - Gesaenge (Dui hua), die allerdings immer, wenn
!!    entlehnt, mit eigenem Text unterlegt werden.
!!    Einige Glissandi in den beiden letzten Phrasen.
!!!ONB: ESAC (Essen Associative Code) Database: CHINA_076
!!!AMT: irregular
!!!AIN: vox
!!!EED: Helmut Schaffrath
!!!EEV: 1.0
*-
